X: 29250
T: New Leaf, The
R: jig
M: 6/8
K: Gmajor
|:df/g/d dB/c/d|gdB c2A|BGG DGB|AGF cBA|
df/g/d dB/c/d|gdB c2A|BGG DGB|1 AGF G2d:|2 AGF GFE||
|:D3 GAB|A2G ABc|dB/c/d gdB|cAF GFE|
D3 GAB|A2G ABc|df/g/d gdB|1 cAF G3:|2 cAF G2d||

